icons/svg/placeholder_56.svg

<?xml version="1.0" encoding="UTF-8"?>
<svg width="56px" height="56px" viewBox="0 0 56 56" version="1.1" xmlns="http://www.w3.org/2000/svg" xmlns:xlink="http://www.w3.org/1999/xlink">
    <!-- Generator: Sketch 57.1 (83088) - https://sketch.com -->
    <title>placeholder_56</title>
    <desc>Created with Sketch.</desc>
    <g id="Icons-Webex" stroke="none" stroke-width="1" fill="none" fill-rule="evenodd">
        <g id="content/placeholder_56" fill="#171B1F">
            <path d="M4,0 L52,0 C54.209139,0 56,1.790861 56,4 L56,52 C56,54.209139 54.209139,56 52,56 L4,56 C1.790861,56 0,54.209139 0,52 L0,4 C0,1.790861 1.790861,0 4,0 Z M4,1 C2.34314575,1 1,2.34314575 1,4 L1,52 C1,53.6568542 2.34314575,55 4,55 L52,55 C53.6568542,55 55,53.6568542 55,52 L55,4 C55,2.34314575 53.6568542,1 52,1 L4,1 Z" id="fill"></path>
        </g>
    </g>
</svg>

<svg width="56" height="56" xmlns="http://www.w3.org/2000/svg"><path d="M4 0h48a4 4 0 014 4v48a4 4 0 01-4 4H4a4 4 0 01-4-4V4a4 4 0 014-4zm0 1a3 3 0 00-3 3v48a3 3 0 003 3h48a3 3 0 003-3V4a3 3 0 00-3-3H4z" fill="#171B1F" fill-rule="evenodd"/></svg>
